cdn/fa/svgs/sharp-regular/down-to-line.svg

<svg xmlns="http://www.w3.org/2000/svg" viewBox="0 0 384 512"><!--! Font Awesome Pro 6.5.2 by @fontawesome - https://fontawesome.com License - https://fontawesome.com/license (Commercial License) Copyright 2024 Fonticons, Inc. --><path d="M224 160l0 48 48 0 28.1 0L192 316.1 83.9 208l28.1 0 48 0 0-48 0-80 64 0 0 80zm1.9 190.1L352 224l0-16 0-48-32 0-16 0-32 0 0-48 0-32 0-48-48 0-64 0-48 0 0 48 0 32 0 48-32 0-16 0-32 0 0 48 0 16L158.1 350.1 192 384l33.9-33.9zM24 432L0 432l0 48 24 0 336 0 24 0 0-48-24 0L24 432z"/></svg>

<svg xmlns="http://www.w3.org/2000/svg" viewBox="0 0 384 512"><!--! Font Awesome Pro 6.5.1 by @fontawesome - https://fontawesome.com License - https://fontawesome.com/license (Commercial License) Copyright 2023 Fonticons, Inc. --><path d="M224 160v48h48 28.1L192 316.1 83.9 208H112h48V160 80h64v80zm1.9 190.1L352 224V208 160H320 304 272V112 80 32H224 160 112V80v32 48H80 64 32v48 16L158.1 350.1 192 384l33.9-33.9zM24 432H0v48H24 360h24V432H360 24z"/></svg>
